X:1
T:Title
%%score 1 2 3
L:1/8
M:3/2
K:C
V:1 treble nm="Part_1"
V:2 treble-8 nm="Part_2"
V:3 treble-8 nm="Part_3"
V:1
 d12 | d8 d4 | B4 e6 d2 | d4 B4 G4 | B8 A4 | G4 z2 G2 B2 c2 | d4 e6 d2 | d4 c2 B4 A2 | %8
 c2 B2 G2 A4 B2 | G4 z2 F2 G2 E2 | G12 | z4 d4 B4 | G4 A2 c4 _B2 | _B4 A2 A2 G2 F2 | F4 E8 | %15
 D4 z2 d2 _B2 c2 | d4 c6 B2 | d12 | z12 | e8 e4 | e4 e4 d2 e2 | f4 e2 e4 d2 | d4 ^c8 | %23
 z2 f2 e2 c2 d2 c2 | A4 _B2 d4 c2 | c4 _B6 G2 | A2 G2 A2 _B2 G2 F2 | A12 | z12 | c8 c2 d2 | %30
 e4 d2 d4 _B2 | A4 _B4 G4 | F4 G2 A4 G2 | F4 E8 | D12- | D12 | d12- | d8 _B4 | A8 A4 | z4 d6 _B2 | %40
 d4 c8- | c8 c4 | z4 d6 c2 | _B8 A4 | _B4 G2 A4 B2 | G4 F2 F2 G2 E2 | G12 | z4 z4 _B4 | A4 _B4 G4 | %49
 _B4 A4 d4 | d8 _B4 | A4 c2 e4 d2 | d4 c6 B2 | d12 | z12 | A12- | A8 A4 | _B6 A2 B2 G2 | %58
 F4 G2 A2 G2 E2 | D4 z4 d4 | d4 e6 d2 | A12 | z4 d8 | _B8 G4 | z4 d4 _B4 | z4 _e4 d4 | _B4 G4 A4 | %67
 _B12 | z4 _e6 d2 | c6 B2 c2 A2 | c12 | z12 | d12- | d8 _B4 | A8 A4 | z4 d4 c4 | A4 _B8 | %77
 A4 G4 F4 | E12 | z4 z4 d4 | e12- | e8 e4 | e8 e4 | d4 c8 | B12- | B12 | z4 d4 _B4 | G4 A4 D4 | %88
 z4 A8 | G4 A2 _B4 c2 | _B4 G4 d2 c2 | _B4 z2 _e2 d2 B2 | c2 _B2 G2 A4 B2 | _B2 A2 G2 F2 G2 E2 | %94
 !fermata!G12- | G8 z4 | !fermata!d12- | d8 z4 | !fermata!A12- | A12 | !fermata!e12- | e12 | d12 | %103
 c12- | c8 z4 ||[M:3/2] d8 d4 | B4 e2 d4 c2 | B6 G2 A2 B2 | G2 B4 c2 d2 e2- | e2 d4 e2 c2 B2 | %110
 d6 c2 B4 | A12 | z2 _B2 B2 B2 B2 B2 | A8 G4 | F8 G4 | A4 _B8 | A4 G2 F2 G2 E2 | D2 G4 A2 F2 E2 | %118
 G12 | z12 | z12 | G4 _B6 c2 | d2 A2 c2 _B2 G2 G2 | G4 z4 z4 | c4 A2 A4 _B2 | _B4 G4 G2 z2 | %126
 d2 B2 G2 A4 B2 | G2 d4 B2 e2 d2 | B2 c2 A2 G2 B4 | c2 d4 e2 B2 c2 | d4 c6 B2 | d12 |] %132
V:2
 d12 | d8 d4 | G12 | g8 g4 | g4 e4 f4 | g12- | g12 | G4 G4 G4 | A4 B4 c4 | B4 A8 | G12 | g8 g4 | %12
 e8 c4 | z4 d8- | d4 c8 | d4 _B4 G4 | _B4 A8 | G12- | G12 | c8 c4 | c4 c8 | d4 z4 e4 | f4 e8 | %23
 d8 d4 | z4 G8 | A4 d8 | c4 _B8 | A12- | A12 | a8 a4 | a4 f4 d4 | f4 g4 e4 | d8 d4 | A4 c8 | d12- | %35
 d12 | _B12- | B12 | z4 d8 | d8 _B4 | A12- | A12 | G8 d4- | d4 c8 | _B4 c4 d4 | _B4 A8 | G12- | %47
 G8 g4 | f4 g4 e4 | g4 f8 | z4 g8 | a4 a4 g4 | f4 e8 | d12- | d12 | d12- | d8 d4 | G8 G4 | %58
 d4 _B4 c4 | d8 G4 | _B4 c8 | d8 z4 | G12- | G4 G8 | G8 z4 | g4 _e4 f4 | g8 f4 | g8 _e4 | %68
 c4 g4 f4 | _e4 d8 | c12- | c12 | G12- | G8 G4 | d8 d4 | f8 f4 | z4 g8 | d4 e4 f4 | g8 g4 | a4 f8 | %80
 e12- | e8 e4 | c8 e4 | g4 a8 | g12- | g12 | G8 G4 | _B4 c4 d4 | c4 z4 c4 | G12 | G4 G4 g4 | %91
 g4 _e4 z4 | c8 d4 | G4 A8 | !fermata!G12- | G8 z4 | !fermata!G12- | G8 z4 | !fermata!d12- | d12 | %100
 !fermata!c12- | c12 | !fermata!B12 | !fermata!A12- | A8 z4 ||[K:F][M:3/2] G8 G4 | G12 | g12- | %108
 g12 | g4 f4 e4 | d12 | f8 f4 | g8 g4 | d8 B4 | A8 G4 | f4 g8 | d8 c4 | B8 A4 | G4 z4 G4 | B8 c4 | %120
 d4 A2 c4 B2 | G4 G4 G4 | z12 | c8 c4 | A4 c4 B4 | G8 G4 | z2 g2 e2 c2 d4 | e2 d2 g4 e2 f2 | %128
 g2 c2 e4 d2 e2- | e2 f2 g6 e2 | d4 A8 | G12 |] %132
V:3
[K:F] G12- | G8 G4 | d4 g4 z4 | G8 G4 | G4 z4 d4 | G12- | G4 c8 | z4 g8 | e4 d4 A4 | d4 c8 | d12 | %11
 G12 | c8 e4 | g4 f6 e2 | d4 A4 z4 | B4 G4 d4 | g4 f4 g2 e2 | g12- | g12 | g8 e4 | c4 g8 | %21
 f4 a4 g4 | d4 A8 | a8 a4 | f4 g8 | e4 z4 f4 | e4 d8 | e12- | e12 | A12- | A4 B8 | z4 G8 | %32
 B4 z4 f2 g2 | a4 g6 a2 | _b8 a4 | a4 e4 f4 | z4 f8- | f8 f4 | f12- | f8 d4 | f4 e8- | e8 f4 | %42
 g8 f4 | f8 e4 | d4 e4 f4 | d4 c8 | d12- | d8 G4 | A4 G8 | d12 | G4 B4 z4 | A8 c4 | d4 A8 | a12- | %54
 a12 | f12- | f8 f4 | g4 d8 | z4 d4 e4 | f4 a8 | g4 z4 g4 | f12 | g12- | g8 g4 | d12 | G8 z4 | %66
 G4 B4 A4 | G4 z4 g4 | _e4 c4 z4 | c4 G8 | g12- | g4 a8 | g12- | g12 | f12 | d8 A4- | A4 G8 | %77
 z4 c4 d4 | c12- | c4 d8 | A12- | A12 | g8 g4 | z4 c8 | G12- | G12 | d8 d4 | G4 F4 B4 | A4 c4 z4 | %89
 d12- | d4 G8 | G4 z4 g4 | g4 f2 e4 f2 | d4 c8 | !fermata!d12- | d8 z4 | !fermata!g12- | g8 z4 | %98
 !fermata!f12- | f12 | !fermata!g12- | g12 | !fermata!g12 | !fermata!a12- | a8 z4 || %105
[M:3/2] d4 g6 g2 | d2 g8 g2 | z2 G8 G2 | G8 G4 | c4 z2 d2 A4 | a8 z4 | d12 | G12 | z2 f4 e2 d4 | %114
 c8 d4 | A4 G4 z4 | f8 e4 | g2 f2 d2 z2 c4 | e6 f2 g2 f2 | d8 e4 | f4 e2 e4 d2 | d12 | d4 e8 | %123
 e12 | e8 d4 | g4 d8 | G8 z4 | G12 | z2 g6 f2 g2 | e2 d2 G2 c2 G2 g2 | f2 d2 e6 f2 | g12 |] %132

